!!!OTL: Ich w
!!!id: P0574
**kern
*clefG2
*k[]
*G:
{4d
=1
4g
4b
8b
8b
=2
8b
8b
4g
8b
8b
=3
4a}
4r
=4
{4g
=5
4.b
8dd
4b
=6
4a
4g
4dd
=7
2dd}
=8
{4b
=9
4b
8b
8dd
4b
=10
4a
4g
4a
=11
2g}
==
*-
!!!minrhy: 8
!!!meters: 3/4 ]  ZZ[3
!!!cut1: Ich w
!!!cut2: ine wei&szlig;e Spinnerin (4-13), S. 18
!! iß eine weiße Spinnerin (4-13), S. 18]
!!!reg: Lothringen
!!!trd: PINCK, Louis: Verklingende Weisen Bd 4, Kassel 1939
!!!rhy1: X_  X_X_XX  XXX_XX  X_0_
!!!rhy2: X_  X_.XX_  X_X_X_  X__
!!!key: P0574  08  G 3/4 ]  ZZ[3
!!!mod: VIERTONSKALA ]  AMBITUS[8
!!!kad: 251
!!!akz: 132_325_321_
!!!fot: 'a__b__c__
!!!for: 'a__b__c__
!!!fok: '/__~a_\__
!! PHRAS[AUFTAKTIG]
!!!fkt: geistliches, religiöses Lied
!! LOTH VKL
!! PR[23] 2K[5] 2G[23] 3K[3] 3G[3] 4A[3] 4Ü[0] 5A[0] 6K[0] 6G[0]
!! 7K[0] 7G[0] 8A[0] MEHR[0] SI[36] ABS[39] SR[28] SP[8]
!! ST[8] 2k[8] 2g[28] 3k[3] 3g[3] 4d[0] 4ü[0] 5d[0] 6k[0] 6g[0]
!! 7k[0] 7g[0] 8d[0] mehr[0] si[41] dm[-5] sr[36] sp[5]
!! 1F[15] 2F[60] 3F[15] 4F[0] LF[0] 2P[5] 3P[5] 4P[0] TRI[0] DF[5] AB[40]
!! TF[0] U3K[0] U3[0] U4[0] U4Ü[0] U5[0] U6K[0] U6[0] U7K[0] U7[0]
!! N1[8] N2K[0] N2[10] N3K[0] N3[15] N4[5] N4Ü[0] N5[25] N6K[0] N6[23]
!!!n7k: 0] N7[8] O1[8] O2K[0] O2[0] O3K[0] O3[0] HÖ[0
!!!RNB: symbol: &szlig; = sz ligature (UTF-8: ÃŸ)
